storage/app/icons/phosphoricons/duotone/align-bottom-duotone.svg

<svg xmlns="http://www.w3.org/2000/svg" fill="currentColor" viewBox="0 0 256 256"><path d="M200 80v96a8 8 0 0 1-8 8h-40a8 8 0 0 1-8-8V80a8 8 0 0 1 8-8h40a8 8 0 0 1 8 8m-96-48H64a8 8 0 0 0-8 8v136a8 8 0 0 0 8 8h40a8 8 0 0 0 8-8V40a8 8 0 0 0-8-8" opacity=".2"/><path d="M64 192h40a16 16 0 0 0 16-16V40a16 16 0 0 0-16-16H64a16 16 0 0 0-16 16v136a16 16 0 0 0 16 16m0-152h40v136H64Zm160 176a8 8 0 0 1-8 8H40a8 8 0 0 1 0-16h176a8 8 0 0 1 8 8m-72-24h40a16 16 0 0 0 16-16V80a16 16 0 0 0-16-16h-40a16 16 0 0 0-16 16v96a16 16 0 0 0 16 16m0-112h40v96h-40Z"/></svg>

<svg xmlns="http://www.w3.org/2000/svg" viewBox="0 0 256 256" fill="currentColor"><path d="M200,80v96a8,8,0,0,1-8,8H152a8,8,0,0,1-8-8V80a8,8,0,0,1,8-8h40A8,8,0,0,1,200,80ZM104,32H64a8,8,0,0,0-8,8V176a8,8,0,0,0,8,8h40a8,8,0,0,0,8-8V40A8,8,0,0,0,104,32Z" opacity="0.2"/><path d="M64,192h40a16,16,0,0,0,16-16V40a16,16,0,0,0-16-16H64A16,16,0,0,0,48,40V176A16,16,0,0,0,64,192ZM64,40h40V176H64ZM224,216a8,8,0,0,1-8,8H40a8,8,0,0,1,0-16H216A8,8,0,0,1,224,216Zm-72-24h40a16,16,0,0,0,16-16V80a16,16,0,0,0-16-16H152a16,16,0,0,0-16,16v96A16,16,0,0,0,152,192Zm0-112h40v96H152Z"/></svg>
